vms/client/nx_vms_client_desktop/external_resources/skin/48x48/Outline/restrict.svg

<svg width="48" height="48" viewBox="0 0 48 48" fill="none" xmlns="http://www.w3.org/2000/svg">
<path fill-rule="evenodd" clip-rule="evenodd" d="M40 24C40 32.8366 32.8366 40 24 40C20.3026 40 16.8981 38.7458 14.1887 36.6397L36.6397 14.1887C38.7458 16.8981 40 20.3026 40 24ZM11.3603 33.8113L33.8113 11.3603C31.1019 9.25416 27.6974 8 24 8C15.1634 8 8 15.1634 8 24C8 27.6974 9.25416 31.1019 11.3603 33.8113ZM44 24C44 35.0457 35.0457 44 24 44C12.9543 44 4 35.0457 4 24C4 12.9543 12.9543 4 24 4C35.0457 4 44 12.9543 44 24Z" class="Primary" fill="#EF5350"/>
</svg>

<svg xmlns="http://www.w3.org/2000/svg" width="48" height="48" fill="none" viewBox="0 0 48 48">
  <g class="48x48/Outline/restrict">
    <path fill="#EF5350" fill-rule="evenodd" d="M40 24c0 8.837-7.163 16-16 16a15.931 15.931 0 0 1-9.811-3.36l22.45-22.451A15.931 15.931 0 0 1 40 24Zm-28.64 9.811 22.451-22.45A15.93 15.93 0 0 0 24 8C15.163 8 8 15.163 8 24a15.93 15.93 0 0 0 3.36 9.811ZM44 24c0 11.046-8.954 20-20 20S4 35.046 4 24 12.954 4 24 4s20 8.954 20 20Z" class="Primary" clip-rule="evenodd"/>
  </g>
</svg>
